X:1
T:Title
%%score { ( 1 3 ) | ( 2 4 ) }
L:1/8
M:4/4
K:Bb
V:1 treble nm="Grand Piano"
V:3 treble 
V:2 bass 
V:4 bass 
V:1
 z4 z2[Q:1/4=100] DE | [DF][_D=E][=DF][_EG] [DF]2 [DB][DG] | [EA]6 CD | %3
 [CE][B,D][CE][DF] [EA]2 [EG][CE] | [DF]6 DE | [DF][_D=E][=DF][_EG] [DF]2 [DB][Ec] | %6
 [Fd][Fd][^Fd][Fc] [GB]2 [GA]B |[M:9/8] [Gc][GB][FA] [EG] [DF]2 G3/2d3/2 | %8
[M:11/16] c/-c/-c/-c/-c/-c/-c/-c-<c |[M:3/8] FGD |[M:4/4] G6 z2 | A6 z2 | A6 z2 | B6 z2 | d6 z2 | %15
[M:17/16] B/-B/-B/-B/-B/-B/-B/-B-<B z/ z/ z/ z/ z | %16
[M:19/16] f/-f/-f/-f/-f/-f/-f/-f-<f z/ z/ z/ z/ z/ z/ z |[M:7/8] B-B-B- B- B3 |] %18
V:2
 z4 z2 B,C | B,,F,B,F, B,,F,B,F, | C,F,,A,,C, F,2 A,B, | F,,A,,C,F, F,,A,,C,F, | %4
 B,,D,F,D, B,,2 B,C | B,,F,B,F, B,,F,B,F, | B,,D,^F,A, [G,,G,]D,G,G | %7
[M:9/8] E,B,E B,B,,F, [G,=E]3/2[B,E]3/2 |[M:11/16] [F,A,F]-<[F,A,F][G,B,]-<[G,B,][A,C]3/2 | %9
[M:3/8] z3 |[M:4/4] z [B,,B,][B,,B,][B,,B,] .B,,2 z2 | z [F,C][F,C][F,C] .[F,C]2 z2 | %12
 z [F,C][F,C][F,C] .[F,C]2 z2 | z [B,,B,][B,,G,][B,,=E,] [B,,F,]D[K:treble]_D=D | %14
 F4[K:bass] z4[K:treble] |[M:17/16] G[K:bass][F,D][F,D][F,D][E,E]3/2[=E,_D][E,D][E,D] | %16
[M:19/16] [F,DF][F,D][F,D][F,C][F,D]3/2[D,B,]C,3/2F,3/2 |[M:7/8] z F,G, =E, F,3 |] %18
V:3
 x8 | x8 | x8 | x8 | x8 | x8 | x8 |[M:9/8] x9 |[M:11/16] z/ z/ z =E-<E_E3/2 |[M:3/8] x3 | %10
[M:4/4] z DDD B,BA_A | z EEE EGFG | z EEE EcBA | z DE_D =DF=EF | z B,B,B, ^FdAc | %15
[M:17/16] z G_AAG3/2[GB][G=A][GB] |[M:19/16] z BBAB3/2F[B,=EG]3/2[C_EA]3/2 | %17
[M:7/8] [B,D]DE _D =D3 |] %18
V:4
 x8 | x8 | x8 | x8 | x8 | x8 | x8 |[M:9/8] x9 |[M:11/16] x11/2 |[M:3/8] x3 |[M:4/4] x8 | x8 | x8 | %13
 x6[K:treble] x2 | z[K:bass] B,,B,,B,, [D,A,][K:treble]^FFA |[M:17/16] x[K:bass] x15/2 | %16
[M:19/16] x19/2 |[M:7/8] B,,-B,,-B,,- B,,- B,,3 |] %18

